X:16337
T:Tawny Gate Corner. BF11.08
M:6/8
L:1/8
C:Browne A hand
S:MS11,c1800?.,Browne Coll.,Lakes
R:Jig
O:England
A:Lakes
N:See 'Fill the Tankard"
Z:vmp.Cherri Graebe.
K:A major
g|a2ag2e|fga g2e|a2f ecA|B3B2g|!a2ag2e|fga g2e|a2f edc|A3A2:|!
|:d|c2Ac2e|fgag2e|a2f ecA|B3B2d|!c2Ac2e|fga g2e|a2f edc|A3A2:||


